X:73
T:Sturgess's Hornpipe. ThoH.073
Q:3/8=100
M:6/8
L:1/8
B:Thompson's Compleat Collection of 120 Favourite Hornpipes.
Z:Village Music Project, Simon Wilson 2016
O:England.
K:G
(3(d/e/f/)|g2G gfe|d2dd2g|cBc edc|B2BB2A|(3(B/c/d/)d2(3(A/B/c/)c2|
(3(B/c/d/)d2A2g|f>ed AB^c|dAFD2:||:d|de=f fed|(3(c/B/A/)A2A2B|cde edc|
(3(B/A/G/)G2G2d|(3(e/f/g/)g2(3(c/d/e/)e2|(3(A/B/c/)A2D2c|Bdg B>cA|G2GG2|]

